X:1
T:Calming Rain
M:4/4
L:1/8
K:Dm
D2 FG A2 BA | d4 A2 FG | F2 D2 A2 ed | c4-B2 A2 |
D2 FG A2 BA | d4 A2 FG | A4-G2 F2 | D8 ||